X: 0
T: The Silver Spear
C: Trad
M: 4/4
L: 1/8
K: Dmaj
|:"D"FA ~A2 BAFA | dfed BcdA | FA ~A2 BAFA | dfed "G"~B3 A |
"D"FA ~A2 BAFA | dfed Bdef | "G"~g3 e "D/F#"~f3 e | d"Gmaj7"fed "A"~B2 A2 :|
|: "D"fa ~a2 bfaf | gfed Bcde | "D"fa ~a2 bfaf | "G"gfed ~B2 A2 |
"D"fa ~a2 bfaf | gfed Bdef | "G"~g3 e "D/F#"~f3 e |[1 d"Bm"fed "A"~B2 A2 :|[2 d"Bm"fed "A"~B2A2 |]